assets/build/gfx/icons/codepen.svg

<svg width="60" height="60" fill="none" xmlns="http://www.w3.org/2000/svg"><path d="M59.108 19.002l-28-18.666a1.998 1.998 0 0 0-2.218 0l-28 18.666A2 2 0 0 0 0 20.666v18.666a2 2 0 0 0 .89 1.664l28 18.666a1.997 1.997 0 0 0 2.22 0l28-18.666a2 2 0 0 0 .89-1.664V20.666a2 2 0 0 0-.89-1.664h-.002zM29.998 36.93L19.604 30l10.394-6.93L40.392 30l-10.394 6.93zm2-17.334V5.736l22.394 14.93-10.394 6.93-12-8zm-4 0l-12 8-10.394-6.93 22.394-14.93v13.86zM12.392 30l-8.394 5.596V24.404L12.392 30zm3.606 2.404l12 8v13.86L5.604 39.334l10.394-6.93zm16 8l12-8 10.394 6.93-22.394 14.93v-13.86zM47.604 30l8.394-5.596v11.192L47.604 30z" fill="#fff"/></svg>

<svg width="60" height="60" viewBox="0 0 60 60" fill="none" xmlns="http://www.w3.org/2000/svg">
<path d="M59.108 19.002L31.108 0.336C30.436 -0.112 29.56 -0.112 28.89 0.336L0.89 19.002C0.334 19.372 0 19.998 0 20.666V39.332C0 40 0.334 40.626 0.89 40.996L28.89 59.662C29.226 59.886 29.612 59.998 30 59.998C30.388 59.998 30.774 59.886 31.11 59.662L59.11 40.996C59.666 40.626 60 40 60 39.332V20.666C60 19.998 59.666 19.372 59.11 19.002H59.108ZM29.998 36.93L19.604 30L29.998 23.07L40.392 30L29.998 36.93ZM31.998 19.596V5.736L54.392 20.666L43.998 27.596L31.998 19.596ZM27.998 19.596L15.998 27.596L5.604 20.666L27.998 5.736V19.596ZM12.392 30L3.998 35.596V24.404L12.392 30ZM15.998 32.404L27.998 40.404V54.264L5.604 39.334L15.998 32.404ZM31.998 40.404L43.998 32.404L54.392 39.334L31.998 54.264V40.404ZM47.604 30L55.998 24.404V35.596L47.604 30Z" fill="white"/>
</svg>
